!!!CDT:
!!!PTL: Le musiche a due voci
!!!PPP: Venice
!!!PPR: Ricciardo Amadino
!!!PDT: 1615
!!!RISM: I 28
!!!rime:
!!!AGN: Madrigal
!!!SCT: Tsg04030b
!!!SCA: Tsg04030b
!!!voices:
!!!COM: D'India, Sigismondo
!!!OTL: Fa nove crespe l'aura al crin disciolto
**kern	**kern	**text	**kern	**text
*part3	*part2	*part2	*part1	*part1
*staff3	*staff2	*staff2	*staff1	*staff1
*I"[Basso continuo]	*I"[Canto II]	*	*I"[Canto I]	*
*I'Bc	*I'C II	*	*I'C I	*
*oclefF4	*oclefC1	*	*oclefC1	*
*clefF4	*clefG2	*	*clefG2	*
*k[b-]	*k[b-]	*	*k[b-]	*
*F:	*F:	*	*F:	*
*omet(C)	*omet(C)	*	*omet(C)	*
*M4/4	*M4/4	*	*M4/4	*
=1	=1	=1	=1	=1
!!LO:TX:a:t=[Ottave passeggiate. Prima parte]	
2r	1r	.	2r	.
4G	.	.	[2ee-X	Fa
4A	.	.	.	.
=2	=2	=2	=2	=2
[1B-y	2r	.	4ee-]	.
.	.	.	8dd	no-
.	.	.	8cc	-ve
.	[2ff	Fa	8ddL	cre-
.	.	.	8ccJ	.
.	.	.	16ddL	.
.	.	.	16cc	.
.	.	.	16cc	.
.	.	.	32b-y	.
.	.	.	32aJ	.
=3	=3	=3	=3	=3
2B-]	4ff]	.	8b-yL	.
.	.	.	8aJ	.
.	8ee-X	no-	16b-yL	.
.	.	.	16a	.
.	8dd	-ve	16a	.
.	.	.	32g	.
.	.	.	32fJ	.
2A	8ee-XL	cre-	8ccL	.
.	8ddJ	.	8b-yJ	.
.	16ee-iL	.	16ccL	.
.	16dd	.	16b-y	.
.	16dd	.	16b-y	.
.	32cc	.	32a	.
.	32b-yJ	.	32gJ	.
=4	=4	=4	=4	=4
1G	8ddL	.	4b-y	.
.	8ccJ	.	.	.
.	16ddL	.	4cc	-spe
.	16cc	.	.	.
.	16cc	.	.	.
.	32b-y	.	.	.
.	32aJ	.	.	.
.	[2b-y	.	8ddL	l'Au-
.	.	.	8ggJ	.
.	.	.	8ddL	.
.	.	.	8eeJ	.
=5	=5	=5	=5	=5
[1F	4b-]	.	8ffL	.
.	.	.	8ccJ	.
.	4a	-spe	8aL	.
.	.	.	8b-yJ	.
.	8aL	l'Au-	8ccL	.
.	8ccJ	.	8aJ	.
.	8aL	.	8fL	.
.	8b-yJ	.	8gJ	.
=6	=6	=6	=6	=6
2F]	2cc	.	2.a	.
2D	2f	-ra	.	.
.	.	.	4a	-ra al
=7	=7	=7	=7	=7
2E	2r	.	8.ccL	crin
.	.	.	16ddJ	.
.	.	.	8.b-yL	.
.	.	.	16ccJ	.
2F	4r	.	16aL	.
.	.	.	8.fJ	.
.	4a	al	16gL	.
.	.	.	8.aJ	.
=8	=8	=8	=8	=8
[1G	8.ddL	crin	8.b-yL	di-
.	16ee-XJ	.	16ccJ	.
.	8.ccL	.	8.aL	.
.	16ddJ	.	16b-yJ	.
.	16b-yL	.	16gL	.
.	8.gJ	.	8.eJ	.
.	16aL	.	16fL	.
.	8.b-yJ	.	8.gJ	.
=9	=9	=9	=9	=9
2G]	2cc	di-	8aL	-sciol-
.	.	.	8aJ	.
.	.	.	8b-yL	.
.	.	.	8ccJ	.
2F	4.a	-sciol-	8ddL	.
.	.	.	8gJ	.
.	.	.	8aL	.
.	8g	.	8b-yJ	.
=10	=10	=10	=10	=10
1E-X	8aL	.	8ccL	.
.	8b-yJ	.	8dJ	.
.	4.cc	.	8e-iL	.
.	.	.	8fJ	.
.	.	.	2g	.
.	8b-y	.	.	.
.	8ccL	.	.	.
.	8gJ	.	.	.
=11	=11	=11	=11	=11
[1D	1a	-to,	1f#X	-to,
=12	=12	=12	=12	=12
2D]	1r	.	1r	.
2D	.	.	.	.
=13	=13	=13	=13	=13
2D	1r	.	4a	Che
.	.	.	4a	na-
2C	.	.	[2a	-tu-
=14	=14	=14	=14	=14
[1BB-y	4dd	Che	4a]	.
.	4dd	na-	8g	-ra
.	.	.	8a	per
.	[2dd	-tu-	2d	sé
=15	=15	=15	=15	=15
2BB-]	4dd]	.	2r	.
.	8cc	-ra	.	.
.	8dd	per	.	.
2C	2g	sé	4r	.
.	.	.	4cc	rin-
=16	=16	=16	=16	=16
2D	4r	.	16ffL	-cre-
.	.	.	16ee	.
.	.	.	16ff	.
.	.	.	16eeJ	.
.	4dd	rin-	8ffL	.
.	.	.	8ggJ	.
2E	16ggL	-cre-	16eeL	.
.	16ff	.	16dd	.
.	16gg	.	16ee	.
.	16ffJ	.	16ddJ	.
.	8eeL	.	8ccL	.
.	8ffJ	.	8gJ	.
=17	=17	=17	=17	=17
[1F	16ddL	.	2a	.
.	16cc	.	.	.
.	16dd	.	.	.
.	16ccJ	.	.	.
.	8ddL	.	.	.
.	8gJ	.	.	.
.	[2a	.	2cc	-spa in
=18	=18	=18	=18	=18
2F]	2a]	.	2.dd	on-
2D	2ff	-spa in	.	.
.	.	.	16ccL	.
.	.	.	16b-y	.
.	.	.	16a	.
.	.	.	16gJ	.
=19	=19	=19	=19	=19
2E	2.ee	on-	16ccL	.
.	.	.	16b-y	.
.	.	.	16a	.
.	.	.	16gJ	.
.	.	.	2cc	.
2F	.	.	.	.
.	16ddL	.	16b-yL	.
.	16cc	.	16a	.
.	16b-y	.	16g	.
.	16aJ	.	16fJ	.
=20	=20	=20	=20	=20
1G	16ddL	.	16b-yL	.
.	16cc	.	16a	.
.	16b-y	.	16g	.
.	16aJ	.	16fJ	.
.	2dd	.	4.b-y	.
.	.	.	8a	.
.	16ccL	.	8gL	.
.	16b-y	.	.	.
.	16a	.	8fJ	.
.	16gJ	.	.	.
=21	=21	=21	=21	=21
2E-X	16ccL	.	4g	.
.	16b-y	.	.	.
.	16a	.	.	.
.	16gJ	.	.	.
.	2ee-X	.	16aL	.
.	.	.	16g	.
.	.	.	16a	.
.	.	.	16b-yJ	.
2C	.	.	4cc	.
.	16ddL	.	16b-yL	.
.	16cc	.	16a	.
.	16b-y	.	16g	.
.	16aJ	.	16fJ	.
=22	=22	=22	=22	=22
1D	16b-yL	.	16gL	.
.	16a	.	16f#i	.
.	16b-y	.	16g	.
.	16ccJ	.	16aJ	.
.	16aL	.	16f#iL	.
.	16g	.	16e	.
.	16a	.	16f#i	.
.	16b-yJ	.	16gJ	.
.	4.g	.	16aL	.
.	.	.	16g	.
.	.	.	16a	.
.	.	.	16b-yJ	.
.	.	.	16gL	.
.	.	.	16f#i	.
.	8f#X	.	16g	.
.	.	.	16aJ	.
=23	=23	=23	=23	=23
1GG	1g	-de.	1g	-de.
=24||	=24||	=24||	=24||	=24||
!	!	!	!LO:TX:a:t=[Seconda parte.]	!
2r	2r	.	1r	.
4G	[2d	Stas-	.	.
4A	.	.	.	.
=25	=25	=25	=25	=25
[1B-y	4d]	.	1r	.
.	8e	-si	.	.
.	8f	l'a-	.	.
.	4.g	-va-	.	.
.	8f	-ro	.	.
=26	=26	=26	=26	=26
2B-]	2cc	sguar-	2.c	Stas-
2A	2cc	-do	.	.
.	.	.	8d	-si
.	.	.	8e	l'a-
=27	=27	=27	=27	=27
1G	2r	.	2.f	-va-
.	2b-y	in	.	.
.	.	.	4e	-ro
=28	=28	=28	=28	=28
[1F	2.cc	sé	2a	sguar-
.	.	.	2a	-do
.	8b-yL	.	.	.
.	8aJ	.	.	.
=29	=29	=29	=29	=29
2F]	8ddL	.	4r	.
.	8ccJ	.	.	.
.	4.dd	.	4a	in
2D	.	.	[2b-y	sé
.	8cc	.	.	.
.	8ccL	.	.	.
.	8b-yJ	.	.	.
=30	=30	=30	=30	=30
2E	2cc	.	4b-]	.
.	.	.	8aL	.
.	.	.	8gJ	.
2F	8r	.	8ccL	.
.	8a	rac-	8b-yJ	.
.	[4cc	-col-	(8ccL	.
.	.	.	8cc)J	.
=31	=31	=31	=31	=31
[1G	8cc]L	.	8r	.
.	8ccJ	.	8g	rac-
.	8ddL	.	8.ddL	-col-
.	8aJ	.	.	.
.	.	.	16ccJ	.
.	8b-yL	.	8ddL	.
.	8aJ	.	8ccJ	.
.	8b-yL	.	8ddL	.
.	8gJ	.	8b-yJ	.
=32	=32	=32	=32	=32
2G]	2a	.	8ccL	.
.	.	.	8aJ	.
.	.	.	8b-yL	.
.	.	.	8gJ	.
2F	8r	.	2a	.
.	8d	.	.	.
.	8eL	.	.	.
.	8fJ	.	.	.
=33	=33	=33	=33	=33
1E-X	[1g	.	16aL	.
.	.	.	16b-y	.
.	.	.	16cc	.
.	.	.	16ddJ	.
.	.	.	16ee-XL	.
.	.	.	16g	.
.	.	.	16a	.
.	.	.	16b-yJ	.
.	.	.	2cc	.
=34	=34	=34	=34	=34
[1D	2g]	.	1a	-to,
.	2f#X	-to,	.	.
=35	=35	=35	=35	=35
2D]	1r	.	1r	.
2D	.	.	.	.
=36	=36	=36	=36	=36
2D	1r	.	1r	.
2C	.	.	.	.
=37	=37	=37	=37	=37
[1BB-y	4b-y	E i	1r	.
.	4dd	te-	.	.
.	16ffL	-so-	.	.
.	16ee-i	.	.	.
.	16dd	.	.	.
.	16ee-iJ	.	.	.
.	16ffL	.	.	.
.	16gg	.	.	.
.	16ee-i	.	.	.
.	16ffJ	.	.	.
=38	=38	=38	=38	=38
2BB-]	4gg	.	2r	.
.	8ee-i	-ri	.	.
.	8dd	d'A-	.	.
2C	4cc	-mo-	4e-i	E i
.	4cc	-re	4g	te-
=39	=39	=39	=39	=39
2D	2r	.	16b-yL	-so-
.	.	.	16a	.
.	.	.	16g	.
.	.	.	16aJ	.
.	.	.	16b-yL	.
.	.	.	16cc	.
.	.	.	16a	.
.	.	.	16b-yJ	.
2E	4r	.	4cc	.
.	4cc	e i	8a	-ri
.	.	.	8g	d'A-
=40	=40	=40	=40	=40
[1F	8aL	suoi	4f	-mo-
.	8ccJ	.	.	.
.	8gL	.	4f	-re
.	8aJ	.	.	.
.	8ccL	.	4r	.
.	8aJ	.	.	.
.	8gL	.	4ff	e i
.	8aJ	.	.	.
=41	=41	=41	=41	=41
2F]	2.d	.	8ffL	suoi
.	.	.	8ccJ	.
.	.	.	8ddL	.
.	.	.	8eeJ	.
2D	.	.	8ffL	.
.	.	.	8ddJ	.
.	8eL	.	8ccL	.
.	8fJ	.	8ddJ	.
=42	=42	=42	=42	=42
2E	8gL	.	8gL	.
.	8fJ	.	8ccJ	.
.	(8gL	.	8b-yL	.
.	8g)J	.	8ccJ	.
2F	16cL	.	8aL	.
.	16d	.	.	.
.	16e	.	8gJ	.
.	16fJ	.	.	.
.	16gL	.	16aL	.
.	16a	.	16f	.
.	16b-y	.	16g	.
.	16aJ	.	16aJ	.
=43	=43	=43	=43	=43
1G	2b-y	.	4d	.
.	.	.	16eL	.
.	.	.	16f	.
.	.	.	16g	.
.	.	.	16aJ	.
.	4r	.	16b-yL	.
.	.	.	16cc	.
.	.	.	16dd	.
.	.	.	16ccJ	.
.	16ee-XL	na-	(8ddL	.
.	16dd	.	.	.
.	16ee-X	.	8dd)J	.
.	16ffJ	.	.	.
=44	=44	=44	=44	=44
2E-X	(8ggL	.	16ee-iL	na-
.	.	.	16ff	.
.	8gg)J	.	16gg	.
.	.	.	16ffJ	.
.	16aL	.	(8ggL	.
.	16g	.	.	.
.	16a	.	8gg)J	.
.	16b-yJ	.	.	.
2C	(8ccL	.	16aL	.
.	.	.	16b-y	.
.	8cc)J	.	16cc	.
.	.	.	16b-yJ	.
.	16aL	-scon-	(8ccL	.
.	16g	.	.	.
.	16a	.	8cc)J	.
.	16b-yJ	.	.	.
=45	=45	=45	=45	=45
1D	(8f#XL	.	16aL	-scon-
.	.	.	16g	.
.	8f#i)J	.	16a	.
.	.	.	16b-yJ	.
.	32gL	.	2g	.
.	32a	.	.	.
.	32b-y	.	.	.
.	32cc	.	.	.
.	32a	.	.	.
.	32b-y	.	.	.
.	32cc	.	.	.
.	32gJ	.	.	.
.	2a	.	.	.
.	.	.	4f#X	.
=46	=46	=46	=46	=46
[1GG;	1g;	-de,	1g;	-de,
=47	=47	=47	=47	=47
2GG]	1r	.	1r	.
4G	.	.	.	.
4A	.	.	.	.
=48	=48	=48	=48	=48
[1B-y	1r	.	2r	.
.	.	.	4ff	E i
.	.	.	4ee-i	te-
=49	=49	=49	=49	=49
2B-]	2r	.	16ddL	-so-
.	.	.	16a	.
.	.	.	16b-y	.
.	.	.	16ccJ	.
.	.	.	16ddL	.
.	.	.	16cc	.
.	.	.	16ee-X	.
.	.	.	16ddJ	.
2A	4dd	E i	16ffL	.
.	.	.	16cc	.
.	.	.	16dd	.
.	.	.	16eenXiJ	.
.	4cc	te-	16ffL	.
.	.	.	16ee	.
.	.	.	16gg	.
.	.	.	16ffJ	.
=50	=50	=50	=50	=50
1G	16b-yL	-so-	4gg	.
.	16f	.	.	.
.	16g	.	.	.
.	16aJ	.	.	.
.	16b-yL	.	8dd	-ri
.	16a	.	.	.
.	16cc	.	8cc	d'A-
.	16b-yJ	.	.	.
.	16ddL	.	[2b-y	-mo-
.	16a	.	.	.
.	16b-y	.	.	.
.	16ccJ	.	.	.
.	16ddL	.	.	.
.	16cc	.	.	.
.	16ee-i	.	.	.
.	16ddJ	.	.	.
=51	=51	=51	=51	=51
[1F	4ff	.	2b-]	.
.	8cc	-ri	.	.
.	8b-y	d'A-	.	.
.	[2cc	-mo-	4a	.
.	.	.	4g	.
=52	=52	=52	=52	=52
2F]	2cc]	.	4.a	.
.	.	.	8a	-re e i
2D	2ff	-re e i	16ddL	suoi
.	.	.	16ee	.
.	.	.	16ff	.
.	.	.	16eeJ	.
.	.	.	16ddL	.
.	.	.	16cc	.
.	.	.	16b-y	.
.	.	.	16aJ	.
=53	=53	=53	=53	=53
2E	16eeL	suoi	16gL	.
.	16ff	.	16a	.
.	16gg	.	16b-y	.
.	16ffJ	.	16gJ	.
.	16eeL	.	8.ggL	na-
.	16dd	.	.	.
.	16cc	.	.	.
.	16b-yJ	.	16ffJ	.
2F	16aL	.	16eeL	.
.	16b-y	.	16dd	.
.	16a	.	16cc	.
.	16b-yJ	.	16b-yJ	.
.	16ccL	.	16aL	.
.	16b-y	.	16g	.
.	16cc	.	16f	.
.	16aJ	.	16eJ	.
=54	=54	=54	=54	=54
1G	[4dd	na-	(8dL	.
.	.	.	8d)J	.
.	16dd]L	.	16eL	.
.	16cc	.	16f	.
.	16b-y	.	16g	.
.	16aJ	.	16aJ	.
.	16gL	.	16b-yL	.
.	16f	.	16a	.
.	16e	.	16a	.
.	16dJ	.	16aJ	.
.	[4e-X	.	16aL	.
.	.	.	16a	.
.	.	.	16g	.
.	.	.	16aJ	.
=55	=55	=55	=55	=55
2E-X	4e-]	.	16b-yL	.
.	.	.	16g	.
.	.	.	16a	.
.	.	.	16b-yJ	.
.	32r	.	16ccL	.
.	32e-iL	.	.	.
.	32f	.	16dd	.
.	32g	.	.	.
.	32a	.	16ee-X	.
.	32b-y	.	.	.
.	32cc	.	16ddJ	.
.	32ddJ	.	.	.
2C	16ee-iL	.	16ddL	.
.	16ff	.	16dd	.
.	16gg	.	16cc	.
.	16ffJ	.	16ddJ	.
.	32ffL	.	8ee-XL	.
.	32ff	.	.	.
.	32ee-i	.	.	.
.	32ff	.	.	.
.	(16gg	.	8ee-iJ	.
.	16gg)J	.	.	.
=56	=56	=56	=56	=56
1D	4r	.	16aL	.
.	.	.	16b-y	.
.	.	.	16cc	.
.	.	.	16ddJ	.
.	16b-yL	-scon-	2g	-scon-
.	16cc	.	.	.
.	16dd	.	.	.
.	16ee-XJ	.	.	.
.	2a	.	.	.
.	.	.	4f#X	.
=57	=57	=57	=57	=57
1GG	1g	-de.	1g	-de.
=58||	=58||	=58||	=58||	=58||
!!LO:TX:a:t= [Terza parte]
2r	2r	.	2r	.
4G	[2b-y	Dol-	[2g	Dol-
4A	.	.	.	.
=59	=59	=59	=59	=59
[1B-y	2b-]	.	2g]	.
.	4f	-ce	4c	-ce
.	4e	co-	4B-y	co-
=60	=60	=60	=60	=60
2B-]	4.f	-lor	4.d	-lor
.	8g	di	8e	di
2A	8aL	.	[2f	ro-
.	8fJ	.	.	.
.	8gL	.	.	.
.	8aJ	.	.	.
=61	=61	=61	=61	=61
1G	2.b-y	ro-	4f]	.
.	.	.	4e	-se in
.	.	.	8fL	quel
.	.	.	8gJ	.
.	4a	-se in	8fL	.
.	.	.	8gJ	.
=62	=62	=62	=62	=62
[1F	8aL	quel	[2.a	.
.	8b-yJ	.	.	.
.	8aL	.	.	.
.	8b-yJ	.	.	.
.	[2cc	.	.	.
.	.	.	16a]L	.
.	.	.	16g	.
.	.	.	16a	.
.	.	.	16b-yJ	.
=63	=63	=63	=63	=63
2F]	4cc]	.	2.cc	.
.	16b-yL	.	.	.
.	16a	.	.	.
.	16b-y	.	.	.
.	16ccJ	.	.	.
2D	[2dd	.	.	.
.	.	.	8b-yL	.
.	.	.	8aJ	.
=64	=64	=64	=64	=64
2E	4dd]	.	(4g	.
.	8ccL	.	2a)	.
.	8b-yJ	.	.	.
2F	4a	.	.	.
.	[4b-y	.	8ddL	bel
.	.	.	8ccJ	.
=65	=65	=65	=65	=65
[1G	4b-]	.	8b-yL	.
.	.	.	8aJ	.
.	8ee-XL	bel	8gL	.
.	8ddJ	.	8fJ	.
.	8ccL	.	2g	.
.	8b-yJ	.	.	.
.	8aL	.	.	.
.	8gJ	.	.	.
=66	=66	=66	=66	=66
2G]	2.a	.	16gL	.
.	.	.	16d	.
.	.	.	16e	.
.	.	.	16fJ	.
.	.	.	16gL	.
.	.	.	16a	.
.	.	.	16b-y	.
.	.	.	16ccJ	.
2F	.	.	[2dd	.
.	8gL	.	.	.
.	8fJ	.	.	.
=67	=67	=67	=67	=67
1E-X	16gL	.	4dd]	.
.	16d	.	.	.
.	16e-i	.	.	.
.	16fJ	.	.	.
.	16gL	.	8ccL	.
.	16a	.	.	.
.	16b-y	.	8b-yJ	.
.	32cc	.	.	.
.	32ddJ	.	.	.
.	2ee-X	.	(8ccL	vol-
.	.	.	8g)J	.
.	.	.	8aL	.
.	.	.	8b-yJ	.
=68	=68	=68	=68	=68
[1D	2a	vol-	2g	.
.	2a	-to	2f#X	-to
=69	=69	=69	=69	=69
2D]	1r	.	4d	Fra
.	.	.	4a	l'a-
2D	.	.	16b-yL	-vo-
.	.	.	16a	.
.	.	.	16fnXi	.
.	.	.	16gJ	.
.	.	.	16aL	.
.	.	.	16e	.
.	.	.	16f	.
.	.	.	16gJ	.
=70	=70	=70	=70	=70
2D	4b-y	Fra	16dL	.
.	.	.	16e	.
.	.	.	16f	.
.	.	.	16gJ	.
.	4ff	l'a-	16aL	.
.	.	.	16b-y	.
.	.	.	16cc	.
.	.	.	16b-yJ	.
2C	16ggL	-vo-	4ee-X	.
.	16ff	.	.	.
.	16cc	.	.	.
.	16ddJ	.	.	.
.	16ee-XL	.	8dd	-rio
.	16dd	.	.	.
.	16b-y	.	8cc	si
.	16ccJ	.	.	.
=71	=71	=71	=71	=71
[1BB-y	4dd	.	(4ff	spar-
.	8cc	-rio	2ff)	.
.	8b-y	si	.	.
.	[2ff	spar-	.	.
.	.	.	8eeL	.
.	.	.	8ddJ	.
=72	=72	=72	=72	=72
2BB-]	4ff]	.	2.gg	.
.	8eeL	.	.	.
.	8ddJ	.	.	.
2C	[2gg	.	.	.
.	.	.	16ggL	.
.	.	.	16ff	.
.	.	.	16eenXi	.
.	.	.	16ddJ	.
=73	=73	=73	=73	=73
2D	4gg]	.	16ccL	.
.	.	.	16b-y	.
.	.	.	16a	.
.	.	.	16gJ	.
.	16ggL	.	4.b-y	.
.	16ff	.	.	.
.	16dd	.	.	.
.	16ccJ	.	.	.
2E	4g	.	.	.
.	.	.	8a	.
.	[4cc	-ge e	16b-yL	.
.	.	.	16g	.
.	.	.	16cc	.
.	.	.	16b-yJ	.
=74	=74	=74	=74	=74
[1F	8cc]L	.	4a	.
.	8b-yJ	.	.	.
.	16ccL	.	4.dd	.
.	16a	.	.	.
.	16dd	.	.	.
.	16ccJ	.	.	.
.	[2b-y	.	.	.
.	.	.	8cc	-ge e
.	.	.	16ddL	.
.	.	.	16b-y	.
.	.	.	16ee-X	.
.	.	.	16ddJ	.
=75	=75	=75	=75	=75
2F]	4b-]	.	4cc	.
.	16aL	.	[4ff	si
.	16a	.	.	.
.	16g	.	.	.
.	16aJ	.	.	.
2D	2b-y	si	16ff]	.
.	.	.	32eenXiL	con-
.	.	.	32dd	.
.	.	.	32cc	.
.	.	.	32b-y	.
.	.	.	32a	.
.	.	.	32gJ	.
.	.	.	32fL	.
.	.	.	32enXi	.
.	.	.	32d	.
.	.	.	32e	.
.	.	.	32f	.
.	.	.	32g	.
.	.	.	32a	.
.	.	.	32b-yJ	.
=76	=76	=76	=76	=76
2E	2r	.	8ccL	.
.	.	.	16dd	.
.	.	.	16eeJ	.
.	.	.	16aL	.
.	.	.	16b-y	.
.	.	.	16cc	.
.	.	.	16aJ	.
2F	8r	.	16b-yL	.
.	.	.	16cc	.
.	16ddL	con-	16f	.
.	16eeJ	.	16gJ	.
.	16ffL	.	16aL	.
.	16dd	.	16f	.
.	16ee	.	16g	.
.	16ffJ	.	16aJ	.
=77	=77	=77	=77	=77
1G	16b-yL	.	2.d	.
.	16cc	.	.	.
.	16dd	.	.	.
.	16b-yJ	.	.	.
.	16ccL	.	.	.
.	16dd	.	.	.
.	16g	.	.	.
.	16aJ	.	.	.
.	16b-yL	.	.	.
.	16g	.	.	.
.	16a	.	.	.
.	16b-yJ	.	.	.
.	16e-XL	.	16gL	-fon-
.	16f	.	16a	.
.	16g	.	16b-y	.
.	16e-XJ	.	32a	.
.	.	.	32gJ	.
=78	=78	=78	=78	=78
2E-X	16fL	.	(2gg	.
.	16g	.	.	.
.	8e-XJ	.	.	.
.	32ee-XL	.	.	.
.	32ff	.	.	.
.	32gg	.	.	.
.	32ee-X	.	.	.
.	32ff	.	.	.
.	32gg	.	.	.
.	32cc	.	.	.
.	32ddJ	.	.	.
2C	32ee-XL	.	4ff)	.
.	32cc	.	.	.
.	32dd	.	.	.
.	32ee-X	.	.	.
.	32a	.	.	.
.	32b-y	.	.	.
.	32cc	.	.	.
.	32aJ	.	.	.
.	32b-yL	.	8ffL	.
.	32cc	.	.	.
.	32f	.	.	.
.	32g	.	.	.
.	32a	.	8eeJ	.
.	32f	.	.	.
.	32g	.	.	.
.	32aJ	.	.	.
=79	=79	=79	=79	=79
1D	4f	-fon-	32ddL	.
.	.	.	32ee	.
.	.	.	32ff	.
.	.	.	32dd	.
.	.	.	32ee	.
.	.	.	32ff	.
.	.	.	32b-y	.
.	.	.	32ccJ	.
.	2g	.	16ddL	.
.	.	.	32b-y	.
.	.	.	32cc	.
.	.	.	32dd	.
.	.	.	32g	.
.	.	.	32a	.
.	.	.	16b-yJ	.
.	.	.	32aL	.
.	.	.	32cc	.
.	.	.	32b-y	.
.	.	.	(8aJ	.
.	4f#X	.	4a)	.
=80	=80	=80	=80	=80
1GG	1g	-de.	1g	-de.
=81||	=81||	=81||	=81||	=81||
!!LO:TX:a:t=Quarta parte
2r	2.e	Ma	1r	.
4G	.	.	.	.
4A	8g	nel-	.	.
.	8f	-la	.	.
=82	=82	=82	=82	=82
[1B-y	16gL	boc-	2.b-y	Ma
.	16d	.	.	.
.	16e	.	.	.
.	16fJ	.	.	.
.	16gL	.	.	.
.	16a	.	.	.
.	16b-y	.	.	.
.	16ccJ	.	.	.
.	[2dd	.	.	.
.	.	.	8dd	nel-
.	.	.	8cc	-la
=83	=83	=83	=83	=83
2B-]	4dd]	.	16ddL	boc-
.	.	.	16f	.
.	.	.	16g	.
.	.	.	16aJ	.
.	4cc	-ca, on-	16b-yL	.
.	.	.	16cc	.
.	.	.	16dd	.
.	.	.	16eeJ	.
2A	16ccL	-d'e-	[2ff	.
.	16b-y	.	.	.
.	16a	.	.	.
.	16gJ	.	.	.
.	16aL	.	.	.
.	16g	.	.	.
.	16g	.	.	.
.	16fJ	.	.	.
=84	=84	=84	=84	=84
1G	2g	.	4ff]	.
.	.	.	4ee-X	-ca, on-
.	8gL	-sce au-	32ee-iXL	-d'e-
.	.	.	32dd	.
.	.	.	32cc	.
.	.	.	32b-y	.
.	8fJ	.	32a	.
.	.	.	32b-y	.
.	.	.	32cc	.
.	.	.	32b-yJ	.
.	8gL	.	32b-yL	.
.	.	.	32a	.
.	.	.	[8.ddJ	.
.	8cJ	.	.	.
=85	=85	=85	=85	=85
[1F	2.f	.	16dd]L	.
.	.	.	32cc	.
.	.	.	32b-y	.
.	.	.	32a	.
.	.	.	32b-y	.
.	.	.	32g	.
.	.	.	32aJ	.
.	.	.	[4f	-sce au-
.	.	.	16f]L	.
.	.	.	16d	.
.	.	.	16enXi	.
.	.	.	16fJ	.
.	16dL	-ra a-	16gL	.
.	16e	.	16a	.
.	16f	.	16b-y	.
.	16gJ	.	16ccJ	.
=86	=86	=86	=86	=86
2F]	4f	.	2a	.
.	4.dd	-mo-	.	.
2D	.	.	[2ff	-ra a-
.	16ccL	.	.	.
.	16b-yJ	.	.	.
.	16aL	.	.	.
.	16g	.	.	.
.	16a	.	.	.
.	16fJ	.	.	.
=87	=87	=87	=87	=87
2E	4g	.	8ff]L	.
.	.	.	16ee	.
.	.	.	16ddJ	.
.	4.gg	-ro-	16ccL	.
.	.	.	16b-y	.
.	.	.	16cc	.
.	.	.	16gJ	.
2F	.	.	4a	.
.	16ffL	.	.	.
.	16eeJ	.	.	.
.	16ddL	.	[4dd	-mo-
.	16cc	.	.	.
.	16dd	.	.	.
.	16aJ	.	.	.
=88	=88	=88	=88	=88
[1G	8b-yL	.	8dd_L	.
.	16cc	.	16dd]	.
.	16ddJ	.	16ccJ	.
.	4.ee-X	.	16b-yL	.
.	.	.	16a	.
.	.	.	16cc	.
.	.	.	16fJ	.
.	.	.	4g	.
.	8dd	.	.	.
.	16ccL	.	[4gg	-ro-
.	16b-y	.	.	.
.	16cc	.	.	.
.	16gJ	.	.	.
=89	=89	=89	=89	=89
2G]	2a	.	8gg]L	.
.	.	.	16ff	.
.	.	.	16eeJ	.
.	.	.	16ddL	.
.	.	.	16cc	.
.	.	.	32dd	.
.	.	.	32a	.
.	.	.	32b-y	.
.	.	.	32gJ	.
2F	8r	.	2a	.
.	8dd	.	.	.
.	8ee-iL	.	.	.
.	8ffJ	.	.	.
=90	=90	=90	=90	=90
1E-X	4gg	.	16gL	.
.	.	.	16a	.
.	.	.	16b-y	.
.	.	.	16ccJ	.
.	16b-yL	.	16ddL	.
.	16cc	.	16ee	.
.	16b-y	.	16ff	.
.	16ccJ	.	16f#XJ	.
.	4dd	.	[2g	.
.	16gL	.	.	.
.	16f#i	.	.	.
.	16g	.	.	.
.	16aJ	.	.	.
=91	=91	=91	=91	=91
[1D	2b-y	.	2g]	.
.	2a	-sa,	2f#X	-sa,
=92	=92	=92	=92	=92
2D]	1r	.	1r	.
2D	.	.	.	.
=93	=93	=93	=93	=93
2D	1r	.	4r	.
.	.	.	4a	So-
2C	.	.	4b-y	-la
.	.	.	4cc	ros-
=94	=94	=94	=94	=94
[1BB-y	4r	.	8ddL	-seg-
.	.	.	8ccJ	.
.	4f	So-	8ccL	.
.	.	.	8b-yJ	.
.	4g	-la	8ddL	.
.	.	.	8ccJ	.
.	4a	ros-	8ccL	.
.	.	.	16b-y	.
.	.	.	16aJ	.
=95	=95	=95	=95	=95
2BB-]	8b-yL	-seg-	2dd	.
.	8aJ	.	.	.
.	8b-yL	.	.	.
.	8gJ	.	.	.
2C	8ee-XL	.	2g	-gia e
.	8ddJ	.	.	.
.	8ddL	.	.	.
.	8ccJ	.	.	.
=96	=96	=96	=96	=96
2D	8b-yL	.	2.dd	sem-
.	8aJ	.	.	.
.	8aL	.	.	.
.	16g	.	.	.
.	16fJ	.	.	.
2E	8gL	.	.	.
.	16a	.	.	.
.	16b-yJ	.	.	.
.	8ccL	.	4cc	-pli-
.	8b-yJ	.	.	.
=97	=97	=97	=97	=97
[1F	2.a	.	2cc	-ce
.	.	.	8r	.
.	.	.	8cc	la
.	4a	-gia e	8ddL	.
.	.	.	8eeJ	.
=98	=98	=98	=98	=98
2F]	2.dd	sem-	8ffL	.
.	.	.	8fJ	.
.	.	.	8gL	.
.	.	.	8aJ	.
2D	.	.	8b-yL	.
.	.	.	8ddJ	.
.	4cc	-pli-	8eeL	.
.	.	.	8ffJ	.
=99	=99	=99	=99	=99
2E	2cc	-ce	8ggL	.
.	.	.	8eeJ	.
.	.	.	8ffL	.
.	.	.	8ggJ	.
2F	8r	.	8ccL	.
.	8b-y	la	8fJ	.
.	8ccL	.	8gL	.
.	8ddJ	.	8aJ	.
=100	=100	=100	=100	=100
1G	8ee-XL	.	8b-yL	.
.	8ddJ	.	8ddJ	.
.	8ee-XL	.	8ccL	.
.	8ffJ	.	8ddJ	.
.	8ggL	.	8ee-XL	.
.	8b-yJ	.	8gJ	.
.	8ccL	.	8aL	.
.	8ddJ	.	8b-yJ	.
=101	=101	=101	=101	=101
2E-X	8ee-XL	.	8ccL	.
.	8gJ	.	8e-XJ	.
.	8aL	.	8fL	.
.	8b-yJ	.	8gJ	.
2C	8ccL	.	(2aX	.
.	8b-yJ	.	.	.
.	8ccL	.	.	.
.	16dd	.	.	.
.	16ee-iJ	.	.	.
=102	=102	=102	=102	=102
1D	8ffL	.	4anX)	.
.	8aJ	.	.	.
.	8b-yL	.	2g	.
.	8ccJ	.	.	.
.	2dd	ro-	.	.
.	.	.	4f#X	ro-
=103	=103	=103	=103	=103
1GG	1dd	-sa,	1g	-sa,
=104	=104	=104	=104	=104
2D	1r	.	4r	.
.	.	.	4a	So-
2C	.	.	16b-yL	-la
.	.	.	16g	.
.	.	.	16a	.
.	.	.	16b-yJ	.
.	.	.	16aL	.
.	.	.	16b-y	.
.	.	.	16cc	.
.	.	.	16aJ	.
=105	=105	=105	=105	=105
[1BB-y	4r	.	2.b-y	.
.	4cc	So-	.	.
.	16ddL	-la	.	.
.	16b-y	.	.	.
.	16cc	.	.	.
.	16ddJ	.	.	.
.	16ccL	.	4a	ros-
.	16dd	.	.	.
.	16ee-X	.	.	.
.	16ccJ	.	.	.
=106	=106	=106	=106	=106
2BB-]	2.dd	.	8b-yL	-seg-
.	.	.	8ccJ	.
.	.	.	8b-yL	.
.	.	.	16cc	.
.	.	.	16ddJ	.
2C	.	.	8gL	.
.	.	.	8aJ	.
.	4cc	ros-	8gL	.
.	.	.	16a	.
.	.	.	16b-yJ	.
=107	=107	=107	=107	=107
2D	8b-yL	-seg-	2f	.
.	8ccJ	.	.	.
.	8b-yL	.	.	.
.	16cc	.	.	.
.	16ddJ	.	.	.
2E	8gL	.	2e	-gia e
.	8aJ	.	.	.
.	8gL	.	.	.
.	16a	.	.	.
.	16b-yJ	.	.	.
=108	=108	=108	=108	=108
[1F	2f	.	16aL	sem-
.	.	.	16g	.
.	.	.	16a	.
.	.	.	16b-yJ	.
.	.	.	16ccL	.
.	.	.	16b-y	.
.	.	.	16cc	.
.	.	.	16aJ	.
.	2cc	-gia e	16fL	.
.	.	.	16e	.
.	.	.	16f	.
.	.	.	16gJ	.
.	.	.	16aL	.
.	.	.	16g	.
.	.	.	16a	.
.	.	.	16fJ	.
=109	=109	=109	=109	=109
2F]	16fL	sem-	4.cc	.
.	16e	.	.	.
.	16f	.	.	.
.	16gJ	.	.	.
.	16aL	.	.	.
.	16g	.	.	.
.	16a	.	8cc	-pli-
.	16fJ	.	.	.
2D	16aL	.	4cc	-ce
.	16g	.	.	.
.	16a	.	.	.
.	16b-yJ	.	.	.
.	16ccL	.	4f	la
.	16b-y	.	.	.
.	16cc	.	.	.
.	16fJ	.	.	.
=110	=110	=110	=110	=110
2E	4.g	.	16eL	ro-
.	.	.	16f	.
.	.	.	16g	.
.	.	.	16fJ	.
.	.	.	16gL	.
.	.	.	16a	.
.	8g	-pli-	16b-y	.
.	.	.	16aJ	.
2F	4cc	-ce	16fL	.
.	.	.	16g	.
.	.	.	16a	.
.	.	.	16gJ	.
.	4cc	la	16aL	.
.	.	.	16b-y	.
.	.	.	16cc	.
.	.	.	16b-yJ	.
=111	=111	=111	=111	=111
[1G	32b-yL	ro-	[1g	.
.	32cc	.	.	.
.	32dd	.	.	.
.	32cc	.	.	.
.	32dd	.	.	.
.	32f	.	.	.
.	32g	.	.	.
.	32aJ	.	.	.
.	32gL	.	.	.
.	32a	.	.	.
.	32b-y	.	.	.
.	32aJ	.	.	.
.	4b-y	.	.	.
.	32dL	.	.	.
.	32e	.	.	.
.	32d	.	.	.
.	32eJ	.	.	.
.	32fL	.	.	.
.	32g	.	.	.
.	32f	.	.	.
.	32g	.	.	.
.	32a	.	.	.
.	32g	.	.	.
.	32a	.	.	.
.	32b-yJ	.	.	.
=112	=112	=112	=112	=112
2.G]	32aL	.	2g_	.
.	32b-y	.	.	.
.	32cc	.	.	.
.	32dd	.	.	.
.	32cc	.	.	.
.	32dd	.	.	.
.	32cc	.	.	.
.	32ddJ	.	.	.
.	32dL	.	.	.
.	32e	.	.	.
.	32f	.	.	.
.	32g	.	.	.
.	32a	.	.	.
.	16b-y	.	.	.
.	32ccJ	.	.	.
.	32ddL	.	8g]L	.
.	32ee	.	.	.
.	32ff	.	.	.
.	32gg	.	.	.
.	8ggJ	.	16c	.
.	.	.	16dJ	.
=113	=113	=113	=113	=113
2E-X	2gg	.	32e-XL	.
.	.	.	32d	.
.	.	.	32c	.
.	.	.	32d	.
.	.	.	32e-X	.
.	.	.	32d	.
.	.	.	32e-X	.
.	.	.	32fJ	.
.	.	.	32e-XL	.
.	.	.	32f	.
.	.	.	32g	.
.	.	.	32f	.
.	.	.	32g	.
.	.	.	32a	.
.	.	.	32g	.
.	.	.	32aJ	.
2C	8r	.	32b-yL	.
.	.	.	32g	.
.	.	.	32a	.
.	.	.	32g	.
.	32ffL	.	32a	.
.	32ee	.	32b-y	.
.	32dd	.	32cc	.
.	32ccJ	.	32cJ	.
.	32b-yL	.	32dL	.
.	32a	.	32enXi	.
.	32g	.	32f	.
.	32f	.	32g	.
.	32e	.	32a	.
.	32d	.	32b-y	.
.	32c	.	32cc	.
.	32B-yJ	.	64dd	.
.	.	.	64eenXiJ	.
=114	=114	=114	=114	=114
1D	16.cL	.	(8ff#XL	.
.	64B-y	.	.	.
.	64c	.	.	.
.	32d	.	16ff#i)J	.
.	32e	.	.	.
.	32f#X	.	8r	.
.	64g	.	.	.
.	64aJ	.	.	.
.	2g	.	.	.
.	.	.	32dL	.
.	.	.	32e	.
.	.	.	32f#i	.
.	.	.	32g	.
.	.	.	32a	.
.	.	.	64b-y	.
.	.	.	64ccJ	.
.	.	.	2a	.
.	4f#X	.	.	.
=115	=115	=115	=115	=115
1GGl	1gl	-sa.	1gl	-sa.
==	==	==	==	==
*-	*-	*-	*-	*-
!!!system-decoration: [*]
!!!RDF**kern: i = editorial accidental
!!!RDF**kern: l = terminal long
!!!ENC: Emiliano Ricciardi
!!!END:
!!!EED: Ricciardi, Emiliano
!!!EEV: 2020/07/28
!!!YEC: Copyright 2018 Emiliano Ricciardi, All Rights Reserved
!!!ONB: Translated from MusicXML on 2020/07/28
!!@@BEGIN:	VERSEDATA
!!@CATALOGNUM:	Tsg04030
!!@LAST_MODIFIED: 2020/07/12
!!@TITLE:		Fa nove crespe l'aura al crin disciolto
!!@CANTO:		IV
!!@OTTAVA:	30
!!@MANUSRC:	G-Al, G-Am, G-Au, G-Bm, G-Br<sub>1</sub>, G-Br<sub>2</sub>, G-Cv, G-Es<sub>1</sub>, G-Es<sub>2</sub>, G-Es<sub>3</sub>, G-F, G-Fr, G-Fr<sub>1</sub>, G-Fr<sub>2</sub>, G-Mc<sub>1</sub>, G-Mg, G-Mr, G-Mt, G-N
!!@PRINTSRC:	G-1580CM, G-1581B, G-1581CV, G-1581R, G-1581MR, G-1581P, G-1581V, G-1581V<sub>bis</sub>, G-1582C, G-1582M, G-1582MC, G-1582P, G-1582SC, G-1582SC<sub>bis</sub>, G-1583S, G-1584O, G-1584S, G-1585C, G-1585S, G-1588S, G-1589S, G-1590B, G-1590S, G-1592S, G-1593S, G-1594C, G-1595C, G-1597C, G-1598C, G-1599C, G-1600C, G-1600S, G-1601C, G-1601R, G-1602C, G-1604C, G-1604Cl, G-1604F, G-1604P, G-1606B, G-1606B<sub>bis</sub>, G-1606L, G-1607ZR, G-1608DP, G-1609GC, G-1610M, G-1611S, G-1611V, G-1612P, G-1613M, G-1613P, G-1613V, G-1615P, G-1616M, G-1617P, G-1619B, G-1619V, G-1620M, G-1620S, G-1621R, G-1624I, G-1624MT, G-1625C, G-1625S, G-1625SS, G-1626C, G-1626Co, G-1627M, G-1628T, G-1628Tu, G-1630L, G-1630T, G-1632FT, G-1639CF, G-1642M, G-1643I, G-1644P, G-1644S
!!@@BEGIN:	VERSES
!!@ABOUTIT:
!!@ABOUTEN:
!!@EDITOR:	Angelo Solerti
!!@EDITION_TITLE: Gerusalemme liberata. Poema eroico di Torquato Tasso. Edizione critica sui manoscritti e le prime stampe.
!!@EDITION_LOC:	Florence
!!@EDITION_PUB:	G. Barbera
!!@EDITION_DATE:  1895
!!@EDITION_VOL:	2
!!@EDITION_PAGE:  142
!!@TRANSLATOR:	Emiliano Ricciardi and Amyrose McCue Gill
!!@VERSE:
!!	Fa nove crespe l’aura al crin disciolto,
!!	Che natura per sé rincrespa in onde;
!!	Stassi l’avaro sguardo in sé raccolto,
!!	E i tesori d’Amore e i suoi nasconde.
!!	Dolce color di rose in quel bel vólto
!!	Fra l’avorio si sparge e si confonde:
!!	Ma nella bocca, ond’esce aura amorosa,
!!	Sola rosseggia e semplice la rosa.
!!@MVERSE_DATE: 20230824
!!@MVERSE:
!!	Fa no||ve cre||spe l’au||ra_al crin di|sciol||to,	=a
!!	Che na|tu||ra per sé rin|cre||spa_in on||de;		=b
!!	Stas||si l’a|va||ro sguar||do_in sé rac|col||to,	=a
!!	E_i te|so||ri d’A|mo||re_e_i suoi nas|con||de.		=b
!!	Dol||ce co|lor|| di ro||se_in quel bel vól||to		=a++ (V divided from DO)
!!	Fra l’a|vo||rio si spar||ge_e si con|fon||de:		=b
!!	Ma nel||la boc||ca,_ond’_e||sce_au||ra_a|mo|ro||sa,	=c (_ when there is ’?)
!!	So||la ros|seg||gia_e sem||pli|ce la ro||sa.		=c
!!@TVERSE:
!!	The breeze makes new curls in her unbound hair,
!!	Which nature for its part ripples in waves;
!!	There is the envious glance gathered to itself,
!!	And hides the treasures of Love and his [agents].
!!	Sweet color of roses in that beautiful face
!!	Among ivory it spreads and mingles:
!!	But upon her mouth, from which emerges loving breath,
!!	The rose blushes alone and simple.
!!@@END:		VERSES
!!@OTHER_CRIT_ED:  Torquato Tasso, <i>Gerusalemme liberata</i>, ed. Lanfranco Caretti, 2 vols. (Bari: Laterza, 1967).
!!@ATTRIBUTION_ABOUT:
!!@DATING:	mid-1560s through 1570s
!!@DEDICATEE:	Duke Alfonso II d'Este
!!@COMMENTARY:
!!@@END:		VERSEDATA
!!@@BEGIN: SETTING
!!@CATALOGNUM:	Tsg04030b
!!@CANTO:		IV
!!@OTTAVA:	30
!!@TITLE:	Fa nove crespe l'aura al crin disciolto
!!@COMPOSER:	D'India, Sigismondo
!!@PARTS:		4 (verses 1-2; 3-4; 5-6; 7-8)
!!@PRINCEPSTITLE:	Le musiche a due voci
!!@PRINCEPSLOC:	Venice
!!@NORMLOC:	Venice
!!@NORMPUB:	Ricciardo Amadino
!!@NORMPUBSHORT:	Amadino
!!@PRINCEPSPUB:	Ricciardo Amadino
!!@PRINCEPSYEAR:	1615
!!@PRINCEPSRISM:	I 28
!!@OVOICES:	2+bc
!!@EXTANTVOICES:	2+bc
!!@OMENSURATION:	C
!!@OCLEFS:	C1,C1,F4
!!@OTIME:		
!!@OKEYSIG:	b-
!!@FINAL:		(G)(G)(G)G
!!@TIMPEDITOR:	Ricciardi, Emiliano
!!@REPRINTS:	
!!@@END: SETTING
